svg/300/outlined/format_line_spacing-fill.svg

<svg xmlns="http://www.w3.org/2000/svg" width="48" height="48" viewBox="0 -960 960 960"><path d="M246.154-179.386 100.001-325.539l32-31.999 91.462 90.616v-424.54l-91.462 90.231-32-31.999 146.153-146.153L392.307-633.23l-31.999 31.999-91.462-90.231v424.54l91.462-90.616 31.999 31.999-146.153 146.153Zm241.539-40.615v-45.384h372.306v49.999l-372.306-4.615Zm0-237.307v-45.384h372.306v45.384H487.693Zm0-237.307v-45.384l372.306-4.615v49.999H487.693Z"/></svg>

<svg xmlns="http://www.w3.org/2000/svg" width="48" height="48" viewBox="0 -960 960 960"><path d="M246.15-179.39 100-325.54l32-32 91.46 90.62v-424.54L132-601.23l-32-32 146.15-146.15 146.16 146.15-32 32-91.46-90.23v424.54l91.46-90.62 32 32-146.16 146.15ZM487.69-220v-45.39H860v50L487.69-220Zm0-237.31v-45.38H860v45.38H487.69Zm0-237.3V-740L860-744.61v50H487.69Z"/></svg>
